X: 1942
T: Uncle Affies' Tap
B: australian traditional tunes wiki
M:4/4
L:1/8
R: Reel
Q: 1/4=100
K:G
V:1 
|:"G"B,2D2B,2DD|B,2DD B,B, DD|"C"C2E2 C2 EE|C2 EE CC EE|
"D7"D2F2D2 FF|D2FF DD FF|"G"G2B2G2 BB|G2BB G2D2:|
"G"G2B2 gf e2|G2B2 gfe2|G2B2 gfe2|"Am"c2A2A2z2|
"D"f2fg a2aa|fe fg a2aa|aaa2"D7"g2f2|"G"e2d2d4|
"G"G2B2gfe2|GD GBd2dd|"G"g2ggf2=ff|"C"e2ee e4|
"Am"e2ee age2|"G"dB de "Em"g4|"D"f2ff "D7"fd ef|"G"g2"(C)"gg "G"g4||
% abcbook-tune_id 6342d5be30ed2219365cadb8


% abcbook-boost 0
% abcbook-tablature 
% abcbook-transpose 
% abcbook-lastupdated 1665324489248
% abcbook-soundfonts 
% abcbook-repeats 1
% NFF Book 2006

